X:204
T: MEISTER MUELLER THUT MAL SEHEN
N: E0108B
O: Europa, Mitteleuropa, Deutschland, Marburg
R: erzaehlendes Volks - Lied, Sage, Liebe, Leid, Tod
M: 4/4
L: 1/8
K: F
FG | A2A2A2GA | B2G2z2
GA | B2B2BdcB | c2A2z2
FA | c3cccff | d4z
fed | c2Acc2Bc | A4z2

